SharedPackages/Infrastructure/DesignResourcesKitIcons/Sources/DesignResourcesKitIcons/DesignSystemImages.xcassets/Color/24px/Microphone-Add-24.imageset/Microphone-Add-24.svg

<svg width="24" height="24" viewBox="0 0 24 24" fill="none" xmlns="http://www.w3.org/2000/svg">
<path d="M10 2.75C11.7949 2.75 13.25 4.20507 13.25 6V11C13.25 11.4131 13.1708 11.8074 13.0303 12.1709C12.4708 12.6313 11.9938 13.1882 11.6221 13.8145C11.1445 14.0903 10.5912 14.25 10 14.25C8.20507 14.25 6.75 12.7949 6.75 11V6C6.75 4.20507 8.20507 2.75 10 2.75Z" fill="#CCCCCC"/>
<path d="M3.42165 9.99512C3.76602 10.0152 4.02935 10.3108 4.00954 10.6553C3.96263 11.4704 4.08264 12.2866 4.36208 13.0537C4.64155 13.8208 5.07535 14.5233 5.63552 15.1172C6.19562 15.7108 6.87161 16.1841 7.62087 16.5078C8.37006 16.8313 9.17786 16.9992 9.99391 17C10.2475 17.0002 10.5001 16.9818 10.7507 16.9502C10.7506 16.9668 10.7498 16.9834 10.7498 17C10.7498 17.4088 10.7901 17.8084 10.865 18.1953C10.7851 18.2049 10.705 18.2138 10.6248 18.2207V20.75H12.0007C12.3422 21.2045 12.0453 22 11.4768 22H4.74977C4.40472 21.9999 4.12477 21.7201 4.12477 21.375C4.12477 21.0299 4.40472 20.7501 4.74977 20.75H9.37477V18.2207C8.60081 18.1536 7.8404 17.9643 7.12477 17.6553C6.2193 17.2641 5.4022 16.6921 4.72536 15.9746C4.04859 15.257 3.52493 14.4082 3.18727 13.4814C2.84966 12.5545 2.70481 11.5679 2.76149 10.583C2.78154 10.2387 3.07729 9.97544 3.42165 9.99512Z" fill="#686868"/>
<path fill-rule="evenodd" clip-rule="evenodd" d="M10.1248 2C12.2647 2.00025 13.9998 3.73505 13.9998 5.875V11.125C13.9998 11.2612 13.992 11.3957 13.9783 11.5283C12.6649 12.2552 11.6408 13.4407 11.1228 14.8691C10.8043 14.9539 10.4699 15 10.1248 15H9.87477C7.73479 14.9999 5.99977 13.265 5.99977 11.125V5.875C5.99977 3.73498 7.73479 2.00014 9.87477 2H10.1248ZM9.87477 3.25C8.42515 3.25014 7.24977 4.42534 7.24977 5.875V11.125C7.24977 12.5747 8.42515 13.7499 9.87477 13.75H10.1248C11.5743 13.7498 12.7498 12.5746 12.7498 11.125V5.875C12.7498 4.4254 11.5743 3.25025 10.1248 3.25H9.87477Z" fill="#686868"/>
<path d="M22 17C22 19.7614 19.7614 22 17 22C14.2386 22 12 19.7614 12 17C12 14.2386 14.2386 12 17 12C19.7614 12 22 14.2386 22 17Z" fill="black"/>
<path d="M17 13.625C17.3452 13.625 17.625 13.9048 17.625 14.25V16.375H19.75C20.0952 16.375 20.375 16.6548 20.375 17C20.375 17.3452 20.0952 17.625 19.75 17.625H17.625V19.75C17.625 20.0952 17.3452 20.375 17 20.375C16.6548 20.375 16.375 20.0952 16.375 19.75V17.625H14.25C13.9048 17.625 13.625 17.3452 13.625 17C13.625 16.6548 13.9048 16.375 14.25 16.375H16.375V14.25C16.375 13.9048 16.6548 13.625 17 13.625Z" fill="white"/>
</svg>

<svg fill="none" viewBox="0 0 24 24" xmlns="http://www.w3.org/2000/svg">
  <path fill="#DDD" d="M10 2.75A3.25 3.25 0 0 1 13.25 6v5c0 .413-.08.807-.22 1.17a6.28 6.28 0 0 0-1.408 1.645A3.25 3.25 0 0 1 6.75 11V6A3.25 3.25 0 0 1 10 2.75Z"/>
  <path fill="url(#Microphone-Add-24_svg__a)" d="M3.422 9.995c.344.02.607.316.587.66l-.003.077c-.036.79.085 1.579.356 2.322l.027.072a6 6 0 0 0 1.246 1.991l.053.056A6 6 0 0 0 9.995 17h.076a6 6 0 0 0 .68-.049l-.001.05c0 .409.04.809.115 1.196-.08.01-.16.019-.24.026v2.527H12c.341.454.044 1.25-.524 1.25H4.75a.625.625 0 0 1 0-1.25h4.625v-2.527a7.254 7.254 0 0 1-2.165-.531l-.085-.037a7.248 7.248 0 0 1-2.335-1.613l-.064-.067a7.25 7.25 0 0 1-1.506-2.407l-.032-.086a7.252 7.252 0 0 1-.427-2.899l.003-.031a.626.626 0 0 1 .658-.557Z"/>
  <path fill="url(#Microphone-Add-24_svg__b)" fill-rule="evenodd" d="M10.124 2A3.875 3.875 0 0 1 14 5.875v5.25c0 .136-.006.27-.02.402a6.27 6.27 0 0 0-2.856 3.342 3.869 3.869 0 0 1-.998.131h-.25A3.875 3.875 0 0 1 6 11.125v-5.25A3.875 3.875 0 0 1 9.875 2h.25Zm-.25 1.25A2.625 2.625 0 0 0 7.25 5.875v5.25a2.625 2.625 0 0 0 2.625 2.625h.25a2.625 2.625 0 0 0 2.624-2.625v-5.25a2.625 2.625 0 0 0-2.625-2.625h-.25Z" clip-rule="evenodd"/>
  <path fill="url(#Microphone-Add-24_svg__c)" d="M16.58 10.007c.184-.01.33.054.437.16.246.247-.07.575-.418.597a6.221 6.221 0 0 0-.603.067c-.011-.386.125-.798.584-.824Z"/>
  <path fill="#4CBA3C" d="M22 17a5 5 0 1 1-10 0 5 5 0 0 1 10 0Z"/>
  <path fill="url(#Microphone-Add-24_svg__d)" d="M20.75 17A3.75 3.75 0 1 0 17 20.75V22a5 5 0 1 1 0-10 5 5 0 0 1 0 10v-1.25A3.75 3.75 0 0 0 20.75 17Z"/>
  <path fill="#fff" d="M17 14.375c.345 0 .625.28.625.625v1.375h1.407a.625.625 0 0 1 0 1.25h-1.407v1.407a.625.625 0 0 1-1.25 0v-1.407H15a.625.625 0 1 1 0-1.25h1.375V15c0-.345.28-.625.625-.625Z"/>
  <defs>
    <linearGradient id="Microphone-Add-24_svg__a" x1="10" x2="10" y1="2" y2="22" gradientUnits="userSpaceOnUse">
      <stop stop-color="#888"/>
      <stop offset="1" stop-color="#444"/>
    </linearGradient>
    <linearGradient id="Microphone-Add-24_svg__b" x1="10" x2="10" y1="2" y2="22" gradientUnits="userSpaceOnUse">
      <stop stop-color="#888"/>
      <stop offset="1" stop-color="#444"/>
    </linearGradient>
    <linearGradient id="Microphone-Add-24_svg__c" x1="10" x2="10" y1="2" y2="22" gradientUnits="userSpaceOnUse">
      <stop stop-color="#888"/>
      <stop offset="1" stop-color="#444"/>
    </linearGradient>
    <linearGradient id="Microphone-Add-24_svg__d" x1="17" x2="17" y1="12" y2="22" gradientUnits="userSpaceOnUse">
      <stop stop-color="#399F29"/>
      <stop offset="1" stop-color="#288419"/>
    </linearGradient>
  </defs>
</svg>
